!!!COM: Music21
!!!OTL: Lembranzas
!!!OMV: pezas_rumbas_lembranzas_lembranzas-partitura.musicxml
**kern
*I"Bagpipes
*I'Bag
*clefG^2
*k[]
*M2/4
=1
!LO:TX:a:t=Andante
*MM100
!LO:TX:a:t=[quarter]=100
4r
8.ggL
16eeJk
=||
8ccL
16ddL
16eeJJ
8.ggL
16eeJk
=
8ccL
16ddL
16eeJJ
8.ffL
16ddJk
=
8bL
16ccL
16ddJJ
8ee
24ddLL
24ee
24ddJJ
=
4cc
8.ggL
16eeJk
=||
8ccL
16ddL
16eeJJ
8.ggL
16eeJk
=
8ccL
16ddL
16eeJJ
8.ffL
16ddJk
=
8bL
16ccL
16ddJJ
8.eeL
16ddJk
!!linebreak:original
=
4cc
8.ggL
16ggJk
=||
12ffL
12gg
12ffJ
8.eeL
16ccJk
!!linebreak:original
=
8.ggL
16ggJk
12ffL
12gg
12ffJ
=
4ee
8.ffL
16ffJk
=
12eeL
12ff
12eeJ
8.ddL
16bJk
=
8.eeL
16eeJk
12ddL
12ee
12ddJ
=
4cc
8.ggL
16ggJk
=||
12ffL
12gg
12ffJ
8.eeL
16ccJk
!!linebreak:original
=
8.ggL
16ggJk
12ffL
12gg
12ffJ
=
4ee
8.ffL
16ffJk
=
12eeL
12ff
12eeJ
8.ddL
16bJk
=
8.eeL
16eeJk
12ddL
12ee
12ddJ
=
4cc
8.ggL
16eeJk
==
*-
